X: 7
M:6/8
L:1/8
K:G
|:BGG AGG|BGG AGE|BGG AGF|G3 GED|
|:egf/2g/2 dBG|ABA A2 d|egf/2g/2 dBG|Dgf g2 a|
bag agf|gfe dBG|BAG AGE|G3 GED:|
|:G2 c BGd|BGd AGE|G2 c BGd|AFd AFD|
|:DFD DED|A3 AGE|DFD DED|G3 GED|

